X: 740
T: The Kilkenny Jig
M:6/8
L:1/8
B:O'Neill's 740
R:Jig
Z:"Transcribed by Bob Safranek, rjs@gsp.org"
Z:Ornament (~) is a mordent.
N:"Collected by Fielding"
K:Am
   (A/B/) |  cBA dB^G | AE^F ^GAB |     cBA  dB^G | ABA A2 B |
            ~cBA dB^G | AE^F ^GAB | Tc2 e dB^G | ABA A2  :|
|:   e    | g^fg agf  | g2 e edB  |     a2 e a2 e | a2 e edB |
            g^fg agf  | g2 e edB  | Tc2 e dB^G | ABA A2  :|


